X: 1
T: Knocknoggin
M: 4/4
L: 1/8
R: hornpipe
K: Gmaj
|:(3DEF | Gd BG D2 D2 | E2 A2 A2 (3DEF | Gd BG D2 c2 | A2 F2 F2 (3DEF |
Gd BG D2 D2 | E2 A2 A2 F2 | Gd BG (3ABc AF | GD BD G2 :|
|:D2 | dc BA G2 B2 | A2 D2 D2 G2 | dc BA G2 B2 | A2 d2 d2 d2 | 
e2 (3edc d2 (3dcB | c2 (3cBA B2 D2 | GA Bc d2 D2 | GD BD G2 :|
